X:1
T:Onward, Ye Pilgrims
T:Onward, Ye Pilgrims
T:John Robson Sweney
T:Frances Jane (Fanny) Crosby, 1881
T:Public Domain Courtesy of the Cyber Hymnal™
T:Public Domain Courtesy of the Cyber Hymnal™
C:John Robson Sweney
Z:Public Domain
Z:Courtesy of the Cyber Hymnal™
%%score 1 ( 2 3 )
L:1/8
Q:1/4=105
M:4/4
K:G
V:1 treble 
V:2 bass 
V:3 bass 
V:1
 [DB]2 [DB]>[CA] [B,G]2 [B,D][B,D] | [CE]2 [CG]>[CG] [B,G]2 [B,D]2 | %2
w: 1.~On- ward, ye pil- grims that|jour- ney to Zi- on,|
w: 2.~On- ward, ye work- ers, that|toil in the vine- yard,|
w: 3.~Ye that are thirst- y and|faint in the de- sert,|
w: 4.~You who are near- ing the|val- ley and sha- dow,|
 [DG]2 [DA][GB] [Gd]2 [Gc][GB] | [GB]2 [FA]>[^E^G] [FA]4 | [GB]2 [GB]>[DA] [DG]2 [B,D][B,D] | %5
w: Sing and be joy- ful, what-|ev- er be- tide;|Trust in Je- ho- vah, your|
w: Bear- ing the bur- den and|heat of the day;|Ne- ver grow wear- y, but|
w: Come to the wells of sal-|va- tion so free;|Drink of their wa- ters, their|
w: Look- ing by faith to the|bright gold- en shore,|Pre- cious to you are the|
 [CE]2 [EG]>[Ec] [Ec]2 [DB]2 | [Gd]2 [Ge]>[Gd] [GB]2 G[GB] | [EA]2 [CE]>[DF] [DG]4 || %8
w: Lord and your Shep- herd,|All that is need- ed His|love will pro- vide.|
w: la- bor with pa- tience,|Heed not the thorns that are|strewn in your way.|
w: life giv- ing wa- ters;|Come, there’s a wel- come for|you and for me.|
w: wells of sal- va- tion,|Sweet- er their wa- ters than|ev- er be- fore.|
"^Refrain" [FA]2 [FA]>[FA] [FA]2 [GB][Ac] | [Bd]2 [GB]>[DA] [DG]2 D2 | %10
w: ||
w: Think of the pro- mise, the|soul cheer- ing pro- mise,|
w: ||
w: ||
 [DG]2 [GB]>[Gd] [Ge]2 [Gd][GB] | [FA]2 [GB]>[GA] [FA]4 | [GB]2 [GB]>[DA] [DG]2 [B,D][B,D] | %13
w: |||
w: Left to en- cour- age the|young and the old,|They shall draw wa- ter from|
w: |||
w: |||
 [CE]2 [EG]>[Ec] [Ec]2 [DB]2 | [Gd]2 [Ge]>[Gd] [GB]2 G[GB] | [EA]2 [CE]>[DF] [DG]4 |] %16
w: |||
w: wells of sal- va- tion,|Beau- ti- ful pro- mise, more|pre- cious than gold.|
w: |||
w: |||
V:2
 G,2 G,>G, G,2 [G,,G,][G,,G,] | [C,G,]2 [E,G,]>[E,G,] G,2 G,2 | %2
 [G,B,]2 [G,C][G,D] [G,B,]2 [G,E][G,D] | [D,D]2 [D,D]>[D,D] [D,D]4 | %4
 [G,D]2 [G,D]>[G,C] [G,B,]2 [G,,G,][G,,G,] | [C,G,]2 [C,C]>[C,G,] G,2 G,2 | %6
 [G,B,]2 [G,C]>[G,B,] [G,D]2 [B,D][G,D] | [C,C]2 [D,C]>[D,C] [G,,G,B,]4 || %8
 [D,D]2 [D,D]>[D,D] [D,D]2 [D,D][D,D] | [G,D]2 [G,D]>[G,C] [G,B,]2 [G,B,]2 | %10
 [G,B,]2 [G,D]>[G,B,] [G,C]2 [G,B,][G,D] | [A,D]2 [A,,^C]>[A,,C] [D,D]4 | %12
 [G,D]2 [G,D]>[G,C] [G,B,]2 [G,,G,][G,,G,] | [C,G,]2 [C,C]>[C,G,] G,2 G,2 | %14
 [G,B,]2 [G,C]>[G,B,] [G,D]2 [B,D][G,D] | [C,C]2 [D,C]>[D,C] [G,,G,B,]4 |] %16
V:3
 G,2 G,>G, G,2 x2 | x4 G,2 G,2 | x8 | x8 | x8 | x8 | x8 | x8 || x8 | x8 | x8 | x8 | x8 | x8 | x8 | %15
 x8 |] %16

